en/_assets/compute/alpha.svg

<svg width="9" height="10" viewBox="0 0 9 10" fill="none" xmlns="http://www.w3.org/2000/svg">
<path d="M2.50988 9.16C1.82721 9.16 1.26721 8.91467 0.829875 8.424C0.403208 7.93333 0.189875 7.20267 0.189875 6.232C0.189875 5.42133 0.291208 4.65867 0.493875 3.944C0.696542 3.21867 0.979208 2.584 1.34188 2.04C1.71521 1.48533 2.15254 1.05333 2.65388 0.743999C3.16588 0.424 3.72588 0.264 4.33388 0.264C4.94188 0.264 5.41654 0.408 5.75788 0.695999C6.10988 0.984 6.37121 1.33067 6.54188 1.736H6.62188C6.70721 1.55467 6.81921 1.336 6.95788 1.08C7.09654 0.813333 7.24588 0.594666 7.40588 0.424H8.55788C8.44054 0.647999 8.30721 0.962666 8.15788 1.368C8.01921 1.76267 7.87521 2.2 7.72588 2.68C7.58721 3.16 7.46454 3.63467 7.35788 4.104L6.79788 6.616C6.75521 6.78667 6.72321 6.94667 6.70188 7.096C6.69121 7.23467 6.68588 7.352 6.68588 7.448C6.68588 7.832 6.85121 8.024 7.18188 8.024C7.35254 8.024 7.52321 7.992 7.69388 7.928V8.952C7.60854 8.99467 7.46988 9.03733 7.27788 9.08C7.08588 9.13333 6.89921 9.16 6.71788 9.16C5.75788 9.16 5.27788 8.632 5.27788 7.576H5.22988C4.86721 8.01333 4.46721 8.38667 4.02988 8.696C3.59254 9.00533 3.08588 9.16 2.50988 9.16ZM2.98988 7.992C3.37388 7.992 3.74721 7.85333 4.10988 7.576C4.48321 7.288 4.81388 6.904 5.10188 6.424C5.40054 5.93333 5.63521 5.384 5.80588 4.776C5.89121 4.46667 5.94454 4.17867 5.96588 3.912C5.99788 3.63467 6.01388 3.384 6.01388 3.16C6.01388 2.65867 5.87521 2.248 5.59788 1.928C5.33121 1.608 4.96321 1.448 4.49388 1.448C4.07788 1.448 3.69388 1.58133 3.34188 1.848C2.98988 2.104 2.68588 2.456 2.42988 2.904C2.17388 3.352 1.97654 3.864 1.83788 4.44C1.69921 5.016 1.62988 5.61867 1.62988 6.248C1.62988 6.83467 1.74721 7.272 1.98188 7.56C2.22721 7.848 2.56321 7.992 2.98988 7.992Z" fill="currentColor" fill-opacity="0.7"/>
</svg>

<svg xmlns="http://www.w3.org/2000/svg" width="9" height="10" fill="none"><path fill="currentColor" fill-opacity=".7" d="M2.51 9.16c-.683 0-1.243-.245-1.68-.736-.427-.49-.64-1.221-.64-2.192 0-.81.101-1.573.304-2.288.203-.725.485-1.36.848-1.904.373-.555.81-.987 1.312-1.296a3.109 3.109 0 0 1 1.68-.48c.608 0 1.083.144 1.424.432.352.288.613.635.784 1.04h.08c.085-.181.197-.4.336-.656.139-.267.288-.485.448-.656h1.152c-.117.224-.25.539-.4.944-.139.395-.283.832-.432 1.312-.139.48-.261.955-.368 1.424l-.56 2.512c-.043.17-.075.33-.096.48-.01.139-.016.256-.016.352 0 .384.165.576.496.576.17 0 .341-.032.512-.096v1.024a1.957 1.957 0 0 1-.416.128c-.192.053-.379.08-.56.08-.96 0-1.44-.528-1.44-1.584H5.23a6.24 6.24 0 0 1-1.2 1.12c-.437.31-.944.464-1.52.464Zm.48-1.168c.384 0 .757-.139 1.12-.416.373-.288.704-.672.992-1.152.299-.49.533-1.04.704-1.648.085-.31.139-.597.16-.864.032-.277.048-.528.048-.752 0-.501-.139-.912-.416-1.232-.267-.32-.635-.48-1.104-.48-.416 0-.8.133-1.152.4-.352.256-.656.608-.912 1.056a5.83 5.83 0 0 0-.592 1.536 7.7 7.7 0 0 0-.208 1.808c0 .587.117 1.024.352 1.312.245.288.581.432 1.008.432Z"/></svg>
